imagenes/instagram.svg

<svg id="Capa_1" data-name="Capa 1" xmlns="http://www.w3.org/2000/svg" viewBox="0 0 30 30"><defs><style>.cls-1{fill:#fce9f3;}</style></defs><title>instagram</title><path class="cls-1" d="M22.94,5.36A1.76,1.76,0,1,0,24.7,7.12,1.76,1.76,0,0,0,22.94,5.36Z"/><path class="cls-1" d="M15.12,7.61A7.39,7.39,0,1,0,22.51,15,7.4,7.4,0,0,0,15.12,7.61Zm0,12.12A4.73,4.73,0,1,1,19.86,15,4.73,4.73,0,0,1,15.12,19.73Z"/><path class="cls-1" d="M21,30H9a9,9,0,0,1-9-9V9A9,9,0,0,1,9,0H21a9,9,0,0,1,9,9V21A9,9,0,0,1,21,30ZM9,2.82A6.2,6.2,0,0,0,2.82,9V21A6.2,6.2,0,0,0,9,27.18H21A6.2,6.2,0,0,0,27.18,21V9A6.2,6.2,0,0,0,21,2.82Z"/></svg>

<?xml version="1.0" encoding="utf-8"?>
<!-- Generator: Adobe Illustrator 24.0.2, SVG Export Plug-In . SVG Version: 6.00 Build 0)  -->
<svg version="1.1" id="Capa_1" xmlns="http://www.w3.org/2000/svg" xmlns:xlink="http://www.w3.org/1999/xlink" x="0px" y="0px"
	 viewBox="0 0 52.5 30" style="enable-background:new 0 0 52.5 30;" xml:space="preserve">
<style type="text/css">
	.st0{fill:#FCE9F3;}
</style>
<g>
	<g>
		<path class="st0" d="M22.9,5.4c-1,0-1.8,0.8-1.8,1.8c0,1,0.8,1.8,1.8,1.8c1,0,1.8-0.8,1.8-1.8C24.7,6.1,23.9,5.4,22.9,5.4z"/>
		<path class="st0" d="M15.1,7.6c-4.1,0-7.4,3.3-7.4,7.4c0,4.1,3.3,7.4,7.4,7.4c4.1,0,7.4-3.3,7.4-7.4C22.5,10.9,19.2,7.6,15.1,7.6z
			 M15.1,19.7c-2.6,0-4.7-2.1-4.7-4.7s2.1-4.7,4.7-4.7c2.6,0,4.7,2.1,4.7,4.7S17.7,19.7,15.1,19.7z"/>
		<path class="st0" d="M21,30H9c-5,0-9-4-9-9V9c0-5,4-9,9-9h12c5,0,9,4,9,9v12C30,26,26,30,21,30z M9,2.8C5.6,2.8,2.8,5.6,2.8,9v12
			c0,3.4,2.8,6.2,6.2,6.2h12c3.4,0,6.2-2.8,6.2-6.2V9c0-3.4-2.8-6.2-6.2-6.2H9z"/>
	</g>
</g>
</svg>
